X: 1169
T: An Chúilfhionn March
R: polka
M: 2/4
K: Gmajor
M:6/8
L:1/16
|:B2d2|g4g3b a2f2|g2G2 B2d2|g4g3b a2b2|g3a g2f2|
e4e2fg agfe|d3c B2d2 g2d2|fedc B2G2 A2F2|G2B,2G,2B,2 G,4:|
|:d3c|B2A2 G2F2|G2A2 B2c2|d2^c2 d3e f2d2|g2f2 g2b2 a2b2|
g3a g2f2|e4 e2fg agfe|d3c B2d2 g2d2|fedc B2G2 A2F2|G2B,2G,2B,2 G,4:|

